X: 8
M:2/4
L:1/8
K:G
g2|dB GB|"tr"d2 dg|dB c/2B/2A/2G/2|A2 GA|
|:d2|gg a/2g/2f/2e/2|dd dB|gg a/2g/2f/2g/2|"tr"e2 dB|
gg a/2g/2f/2e/2|dd dg|dB c/2B/2A/2G/2|"tr"A2 GA|

